**harm	**harte	**timestamp	**phrase	**leadinstrument	**kern
*M4/4	*M4/4	*	*	*	*
*D:	*D:	*	*	*	*D:
1r;	N	0	.	r	1r;
=1	=1	=1	=1	=1	=1
*>A_intro	*>A_intro	*>A_intro	*>A_intro	*>A_intro	*>A_intro
1r	N	0.232	newline	r	1r
=2	=2	=2	=2	=2	=2
1Vd	A:5(b7)/b7	1.207	newline	guitar	1a 1cc# 1ee
=3	=3	=3	=3	=3	=3
1V	A:5(b7)	2.681	.	guitar	1A 1cc# 1ee
=4	=4	=4	=4	=4	=4
1Ve	A:5(b7)/2	4.154	.	guitar	1A 1cc# 1ee
=5	=5	=5	=5	=5	=5
1Vb	A:5(b7)/3	5.627	.	guitar	1a 1C# 1ee
=6	=6	=6	=6	=6	=6
1Vd	A:5(b7)/b7	7.1	newline	guitar	1a 1cc# 1ee
=7	=7	=7	=7	=7	=7
1V	A:5(b7)	8.56	.	guitar	1A 1cc# 1ee
=8	=8	=8	=8	=8	=8
1Ve	A:5(b7)/2	10.02	.	guitar	1A 1cc# 1ee
=9	=9	=9	=9	=9	=9
1Vb	A:5(b7)/3	11.48	.	guitar	1a 1C# 1ee
=10	=10	=10	=10	=10	=10
*>A_verse	*>A_verse	*>A_verse	*>A_verse	*>A_verse	*>A_verse
1Vd	A:5(b7)/b7	12.94	newline	voice	1a 1cc# 1ee
=11	=11	=11	=11	=11	=11
1V	A:5(b7)	14.412	.	voice	1A 1cc# 1ee
=12	=12	=12	=12	=12	=12
1Ve	A:5(b7)/2	15.885	.	voice	1A 1cc# 1ee
=13	=13	=13	=13	=13	=13
1Vb	A:5(b7)/3	17.357	.	voice	1a 1C# 1ee
=14	=14	=14	=14	=14	=14
1Vd	A:5(b7)/b7	18.829	newline	voice	1a 1cc# 1ee
=15	=15	=15	=15	=15	=15
1V	A:5(b7)	20.297	.	voice	1A 1cc# 1ee
=16	=16	=16	=16	=16	=16
1Ve	A:5(b7)/2	21.765	.	voice	1A 1cc# 1ee
=17	=17	=17	=17	=17	=17
1Vb	A:5(b7)/3	23.232	.	voice	1a 1C# 1ee
=18	=18	=18	=18	=18	=18
1Vd	A:5(b7)/b7	24.7	newline	voice	1a 1cc# 1ee
=19	=19	=19	=19	=19	=19
1V	A:5(b7)	26.172	.	voice	1A 1cc# 1ee
=20	=20	=20	=20	=20	=20
1Ve	A:5(b7)/2	27.645	.	voice	1A 1cc# 1ee
=21	=21	=21	=21	=21	=21
1Vb	A:5(b7)/3	29.117	.	voice	1a 1C# 1ee
=22	=22	=22	=22	=22	=22
*>B_prechorus	*>B_prechorus	*>B_prechorus	*>B_prechorus	*>B_prechorus	*>B_prechorus
2I	D:maj	30.589	newline	voice	2D 2f# 2a
4IV	G:maj	31.316	.	voice	4G 4b 4dd
4V	A:maj	31.679	.	voice	4A 4cc# 4ee
=23	=23	=23	=23	=23	=23
2I	D:maj	32.043	.	voice	2D 2f# 2a
4IV	G:maj	32.77	.	voice	4G 4b 4dd
4V	A:maj	33.134	.	voice	4A 4cc# 4ee
=24	=24	=24	=24	=24	=24
2I	D:maj	33.497	.	voice	2D 2f# 2a
4IV	G:maj	34.225	.	voice	4G 4b 4dd
4V	A:maj	34.588	.	voice	4A 4cc# 4ee
=25	=25	=25	=25	=25	=25
1I	D:maj	34.952	.	voice	1D 1f# 1a
=26	=26	=26	=26	=26	=26
*>C_chorus	*>C_chorus	*>C_chorus	*>C_chorus	*>C_chorus	*>C_chorus
1V	A:maj	36.406	newline	voice	1A 1cc# 1ee
=27	=27	=27	=27	=27	=27
1I	D:maj	37.871	.	voice	1D 1f# 1a
=28	=28	=28	=28	=28	=28
1V	A:maj	39.335	.	voice	1A 1cc# 1ee
=29	=29	=29	=29	=29	=29
1I	D:maj	40.8	.	voice	1D 1f# 1a
=30	=30	=30	=30	=30	=30
1V	A:maj	42.264	newline	voice	1A 1cc# 1ee
=31	=31	=31	=31	=31	=31
1I	D:maj	43.76	.	voice	1D 1f# 1a
=32	=32	=32	=32	=32	=32
1V	A:maj	45.256	.	voice	1A 1cc# 1ee
=33	=33	=33	=33	=33	=33
*>D_transition	*>D_transition	*>D_transition	*>D_transition	*>D_transition	*>D_transition
1-VIm7	B-:9	46.752	newline	voice	1B- 1dd 1ff 1aa
=34	=34	=34	=34	=34	=34
1-VIIf	C:maj/4	48.217	.	voice	1C 1e 1g
=35	=35	=35	=35	=35	=35
1ivm7	G:min7	49.682	.	voice	1G 1b- 1dd 1ff#
=36	=36	=36	=36	=36	=36
1v7	A:min7	51.147	.	voice	1A 1cc 1ee 1gg
=37	=37	=37	=37	=37	=37
1Ve	A:5(b7)/2	52.613	.	voice	1A 1cc# 1ee
=38	=38	=38	=38	=38	=38
1Vb	A:5(b7)/3	54.078	.	voice	1a 1C# 1ee
=39	=39	=39	=39	=39	=39
*>A_verse	*>A_verse	*>A_verse	*>A_verse	*>A_verse	*>A_verse
1Vd	A:5(b7)/b7	55.543	newline	voice	1a 1cc# 1ee
=40	=40	=40	=40	=40	=40
1V	A:5(b7)	56.971	.	voice	1A 1cc# 1ee
=41	=41	=41	=41	=41	=41
1Ve	A:5(b7)/2	58.398	.	voice	1A 1cc# 1ee
=42	=42	=42	=42	=42	=42
1Vb	A:5(b7)/3	59.825	.	voice	1a 1C# 1ee
=43	=43	=43	=43	=43	=43
1Vd	A:5(b7)/b7	61.253	newline	voice	1a 1cc# 1ee
=44	=44	=44	=44	=44	=44
1V	A:5(b7)	62.743	.	voice	1A 1cc# 1ee
=45	=45	=45	=45	=45	=45
1Ve	A:5(b7)/2	64.233	.	voice	1A 1cc# 1ee
=46	=46	=46	=46	=46	=46
1Vb	A:5(b7)/3	65.723	.	voice	1a 1C# 1ee
=47	=47	=47	=47	=47	=47
1Vd	A:5(b7)/b7	67.213	newline	voice	1a 1cc# 1ee
=48	=48	=48	=48	=48	=48
1V	A:5(b7)	68.655	.	voice	1A 1cc# 1ee
=49	=49	=49	=49	=49	=49
1Ve	A:5(b7)/2	70.097	.	voice	1A 1cc# 1ee
=50	=50	=50	=50	=50	=50
1Vb	A:5(b7)/3	71.539	.	voice	1a 1C# 1ee
=51	=51	=51	=51	=51	=51
*>B_prechorus	*>B_prechorus	*>B_prechorus	*>B_prechorus	*>B_prechorus	*>B_prechorus
2I	D:maj	72.981	newline	voice	2D 2f# 2a
4IV	G:maj	73.722	.	voice	4G 4b 4dd
4V	A:maj	74.093	.	voice	4A 4cc# 4ee
=52	=52	=52	=52	=52	=52
2I	D:maj	74.463	.	voice	2D 2f# 2a
4IV	G:maj	75.204	.	voice	4G 4b 4dd
4V	A:maj	75.575	.	voice	4A 4cc# 4ee
=53	=53	=53	=53	=53	=53
2I	D:maj	75.945	.	voice	2D 2f# 2a
4IV	G:maj	76.686	.	voice	4G 4b 4dd
4V	A:maj	77.057	.	voice	4A 4cc# 4ee
=54	=54	=54	=54	=54	=54
1I	D:maj	77.427	.	voice	1D 1f# 1a
=55	=55	=55	=55	=55	=55
*>C_chorus	*>C_chorus	*>C_chorus	*>C_chorus	*>C_chorus	*>C_chorus
1V	A:maj	78.909	newline	voice	1A 1cc# 1ee
=56	=56	=56	=56	=56	=56
1I	D:maj	80.373	.	voice	1D 1f# 1a
=57	=57	=57	=57	=57	=57
1V	A:maj	81.838	.	voice	1A 1cc# 1ee
=58	=58	=58	=58	=58	=58
1I	D:maj	83.302	.	voice	1D 1f# 1a
=59	=59	=59	=59	=59	=59
1V	A:maj	84.767	newline	voice	1A 1cc# 1ee
=60	=60	=60	=60	=60	=60
1I	D:maj	86.273	.	voice	1D 1f# 1a
=61	=61	=61	=61	=61	=61
1V	A:maj	87.779	.	voice	1A 1cc# 1ee
=62	=62	=62	=62	=62	=62
*>D_transition	*>D_transition	*>D_transition	*>D_transition	*>D_transition	*>D_transition
1-VIm7	B-:9	89.285	newline	voice	1B- 1dd 1ff 1aa
=63	=63	=63	=63	=63	=63
1-VIIf	C:maj/4	90.244	.	voice	1C 1e 1g
=64	=64	=64	=64	=64	=64
1ivm7	G:min7	91.202	.	voice	1G 1b- 1dd 1ff#
=65	=65	=65	=65	=65	=65
1v7	A:min7	92.161	.	voice	1A 1cc 1ee 1gg
=66	=66	=66	=66	=66	=66
1Ve	A:5(b7)/2	93.12	.	voice	1A 1cc# 1ee
=67	=67	=67	=67	=67	=67
1Vb	A:5(b7)/3	94.078	.	voice	1a 1C# 1ee
=68	=68	=68	=68	=68	=68
*>E_bridge	*>E_bridge	*>E_bridge	*>E_bridge	*>E_bridge	*>E_bridge
1-VI	B-:maj6(9)	95.037	newline	voice	1B- 1dd 1ff
=69	=69	=69	=69	=69	=69
1-IIIb	F:maj6(9)/3	96.509	.	voice	1f 1A 1cc
=70	=70	=70	=70	=70	=70
1ivm7	G:min11	97.981	.	voice	1G 1b- 1dd 1ff#
=71	=71	=71	=71	=71	=71
1-IIIb	F:maj6(9)/3	99.453	.	voice	1f 1A 1cc
=72	=72	=72	=72	=72	=72
1IV	G:sus4(b7)	100.925	newline	voice	1G 1b 1dd
=73	=73	=73	=73	=73	=73
1-IIIb	F:maj6(9)/3	102.393	.	voice	1f 1A 1cc
=74	=74	=74	=74	=74	=74
1-VI	B-:maj6(9)	103.861	.	voice	1B- 1dd 1ff
=75	=75	=75	=75	=75	=75
1-IIIb	F:maj6(9)/3	105.329	.	voice	1f 1A 1cc
=76	=76	=76	=76	=76	=76
1-VI	B-:maj6(9)	106.797	newline	voice	1B- 1dd 1ff
=77	=77	=77	=77	=77	=77
1-VII	C:maj(9)	108.24	.	voice	1C 1e 1g
=78	=78	=78	=78	=78	=78
1-VI	B-:maj6(9)	109.683	.	voice	1B- 1dd 1ff
=79	=79	=79	=79	=79	=79
1-VII	C:maj(9)	111.125	.	voice	1C 1e 1g
=80	=80	=80	=80	=80	=80
1-VI	B-:maj6(9)	112.568	newline	voice	1B- 1dd 1ff
=81	=81	=81	=81	=81	=81
1-VII	C:maj(9)	114.036	.	voice	1C 1e 1g
=82	=82	=82	=82	=82	=82
1-VI	B-:maj6(9)	115.504	.	voice	1B- 1dd 1ff
=83	=83	=83	=83	=83	=83
1-VII	C:maj(9)	116.972	.	voice	1C 1e 1g
=84	=84	=84	=84	=84	=84
1I	D:maj	118.44	newline	voice	1D 1f# 1a
=85	=85	=85	=85	=85	=85
1I	D:maj	119.896	.	voice	1D 1f# 1a
=86	=86	=86	=86	=86	=86
*>C_chorus	*>C_chorus	*>C_chorus	*>C_chorus	*>C_chorus	*>C_chorus
1V	A:maj	121.352	newline	voice	1A 1cc# 1ee
=87	=87	=87	=87	=87	=87
1I	D:maj	122.815	.	voice	1D 1f# 1a
=88	=88	=88	=88	=88	=88
1V	A:maj	124.278	.	voice	1A 1cc# 1ee
=89	=89	=89	=89	=89	=89
1I	D:maj	125.742	.	voice	1D 1f# 1a
=90	=90	=90	=90	=90	=90
1V	A:maj	127.205	newline	voice	1A 1cc# 1ee
=91	=91	=91	=91	=91	=91
1I	D:maj	128.655	.	voice	1D 1f# 1a
=92	=92	=92	=92	=92	=92
1V	A:maj	130.105	.	voice	1A 1cc# 1ee
=93	=93	=93	=93	=93	=93
1I	D:maj	131.555	.	voice	1D 1f# 1a
=94	=94	=94	=94	=94	=94
1V	A:maj	133.005	newline	voice	1A 1cc# 1ee
=95	=95	=95	=95	=95	=95
1I	D:maj	134.493	.	voice	1D 1f# 1a
=96	=96	=96	=96	=96	=96
1V	A:maj	135.981	.	voice	1A 1cc# 1ee
=97	=97	=97	=97	=97	=97
1I	D:maj	137.469	.	voice	1D 1f# 1a
=98	=98	=98	=98	=98	=98
1V	A:maj	138.957	newline	voice	1A 1cc# 1ee
=99	=99	=99	=99	=99	=99
1I	D:maj	140.401	.	voice	1D 1f# 1a
=100	=100	=100	=100	=100	=100
1V	A:maj	141.845	.	voice	1A 1cc# 1ee
=101	=101	=101	=101	=101	=101
*>D_outro	*>D_outro	*>D_outro	*>D_outro	*>D_outro	*>D_outro
1-VIm7	B-:9	143.289	newline	voice	1B- 1dd 1ff 1aa
=102	=102	=102	=102	=102	=102
1-VIIf	C:maj/4	144.758	.	voice	1C 1e 1g
=103	=103	=103	=103	=103	=103
1ivm7	G:min7	146.227	.	voice	1G 1b- 1dd 1ff#
=104	=104	=104	=104	=104	=104
1v7	A:min7	147.696	.	voice	1A 1cc 1ee 1gg
=105	=105	=105	=105	=105	=105
1-VI7	B-:maj7	149.165	newline	voice	1B- 1dd 1ff 1aa
=106	=106	=106	=106	=106	=106
2-VIIf	C:maj/4	150.617	.	voice	2C 2e 2g
2-VII	C:maj	151.343	.	voice	2C 2e 2g
=107	=107	=107	=107	=107	=107
1I	D:maj	152.068	.	voice	1D 1f# 1a
=108	=108	=108	=108	=108	=108
1I	D:maj	153.52	.	voice	1D 1f# 1a
=109	=109	=109	=109	=109	=109
1-VIm7	B-:9	154.972	newline	voice	1B- 1dd 1ff 1aa
=110	=110	=110	=110	=110	=110
1-VIIf	C:maj/4	156.463	.	voice	1C 1e 1g
=111	=111	=111	=111	=111	=111
1ivm7	G:min7	157.953	.	voice	1G 1b- 1dd 1ff#
=112	=112	=112	=112	=112	=112
1v7	A:min7	159.444	.	voice	1A 1cc 1ee 1gg
=113	=113	=113	=113	=113	=113
1-VI7	B-:maj7	160.934	newline	voice	1B- 1dd 1ff 1aa
=114	=114	=114	=114	=114	=114
2-VIIf	C:maj/4	162.384	.	voice	2C 2e 2g
2-VII	C:maj	163.109	.	voice	2C 2e 2g
=115	=115	=115	=115	=115	=115
1I	D:maj	163.834	.	voice	1D 1f# 1a
=116	=116	=116	=116	=116	=116
1I	D:maj	165.284	.	voice	1D 1f# 1a
=117	=117	=117	=117	=117	=117
1-VIm7	B-:9	166.734	newline	voice	1B- 1dd 1ff 1aa
=118	=118	=118	=118	=118	=118
1-VIIf	C:maj/4	168.211	.	voice	1C 1e 1g
=119	=119	=119	=119	=119	=119
1ivm7	G:min7	169.687	.	voice	1G 1b- 1dd 1ff#
=120	=120	=120	=120	=120	=120
1v7	A:min7	171.164	.	voice	1A 1cc 1ee 1gg
=121	=121	=121	=121	=121	=121
1-VI7	B-:maj7	172.641	newline	voice	1B- 1dd 1ff 1aa
=122	=122	=122	=122	=122	=122
2-VIIf	C:maj/4	174.096	.	voice	2C 2e 2g
2-VII	C:maj	174.824	.	voice	2C 2e 2g
=123	=123	=123	=123	=123	=123
1I	D:maj	175.551	.	voice	1D 1f# 1a
=124	=124	=124	=124	=124	=124
1I	D:maj	177.007	.	voice	1D 1f# 1a
=125	=125	=125	=125	=125	=125
1-VIm7	B-:9	178.462	newline	voice	1B- 1dd 1ff 1aa
=126	=126	=126	=126	=126	=126
1-VIIf	C:maj/4	179.938	.	voice	1C 1e 1g
=127	=127	=127	=127	=127	=127
1ivm7	G:min7	181.414	.	voice	1G 1b- 1dd 1ff#
=128	=128	=128	=128	=128	=128
1v7	A:min7	182.89	.	voice	1A 1cc 1ee 1gg
=129	=129	=129	=129	=129	=129
1-VI7	B-:maj7	184.366	newline	voice	1B- 1dd 1ff 1aa
=130	=130	=130	=130	=130	=130
2-VIIf	C:maj/4	185.815	.	voice	2C 2e 2g
2-VII	C:maj	186.539	.	voice	2C 2e 2g
=131	=131	=131	=131	=131	=131
1I	D:maj	187.263	.	voice	1D 1f# 1a
=132	=132	=132	=132	=132	=132
1I	D:maj	188.711	.	voice	1D 1f# 1a
=133	=133	=133	=133	=133	=133
1-VIm7	B-:9	190.16	newline	voice	1B- 1dd 1ff 1aa
=134	=134	=134	=134	=134	=134
1-VIIf	C:maj/4	191.642	.	voice	1C 1e 1g
=135	=135	=135	=135	=135	=135
1ivm7	G:min7	193.125	.	voice	1G 1b- 1dd 1ff#
=136	=136	=136	=136	=136	=136
1v7	A:min7	194.608	.	voice	1A 1cc 1ee 1gg
=137	=137	=137	=137	=137	=137
1-VI7	B-:maj7	196.091	newline	voice	1B- 1dd 1ff 1aa
=138	=138	=138	=138	=138	=138
2-VIIf	C:maj/4	197.538	.	voice	2C 2e 2g
2-VII	C:maj	198.261	.	voice	2C 2e 2g
=139	=139	=139	=139	=139	=139
1I	D:maj	198.984	.	voice	1D 1f# 1a
=140	=140	=140	=140	=140	=140
1I	D:maj	200.431	.	voice	1D 1f# 1a
=141	=141	=141	=141	=141	=141
1-VIm7	B-:9	201.878	newline	voice	1B- 1dd 1ff 1aa
=142	=142	=142	=142	=142	=142
1-VIIf	C:maj/4	203.358	.	voice	1C 1e 1g
=143	=143	=143	=143	=143	=143
1ivm7	G:min7	204.838	.	voice	1G 1b- 1dd 1ff#
=144	=144	=144	=144	=144	=144
1v7	A:min7	206.319	.	voice	1A 1cc 1ee 1gg
=145	=145	=145	=145	=145	=145
1-VI7	B-:maj7	207.799	newline	voice	1B- 1dd 1ff 1aa
=146	=146	=146	=146	=146	=146
2-VIIf	C:maj/4	209.245	.	voice	2C 2e 2g
2-VII	C:maj	209.968	.	voice	2C 2e 2g
=147	=147	=147	=147	=147	=147
1I	D:maj	210.691	.	voice	1D 1f# 1a
=148	=148	=148	=148	=148	=148
1I	D:maj	212.137	.	voice	1D 1f# 1a
=149	=149	=149	=149	=149	=149
1I	D:maj	213.583	newline	voice	1D 1f# 1a
=150	=150	=150	=150	=150	=150
1I	D:maj	215.083	.	voice	1D 1f# 1a
=151	=151	=151	=151	=151	=151
1-VIm7	B-:9	216.582	newline	voice	1B- 1dd 1ff 1aa
=152	=152	=152	=152	=152	=152
1-VIIf	C:maj/4	218.046	.	voice	1C 1e 1g
=153	=153	=153	=153	=153	=153
1ivm7	G:min7	219.509	.	voice	1G 1b- 1dd 1ff#
=154	=154	=154	=154	=154	=154
1v7	A:min7	220.972	.	voice	1A 1cc 1ee 1gg
=155	=155	=155	=155	=155	=155
1-VI7	B-:maj7	222.435	newline	voice	1B- 1dd 1ff 1aa
=156	=156	=156	=156	=156	=156
2-VIIf	C:maj/4	223.896	.	voice	2C 2e 2g
2-VII	C:maj	224.627	.	voice	2C 2e 2g
=157	=157	=157	=157	=157	=157
*>_fadeout	*>_fadeout	*>_fadeout	*>_fadeout	*>_fadeout	*>_fadeout
1I	D:maj	225.357	newline	voice	1D 1f# 1a
=158	=158	=158	=158	=158	=158
1I	D:maj	226.806	.	voice	1D 1f# 1a
=159	=159	=159	=159	=159	=159
1I	D:maj	228.256	.	voice	1D 1f# 1a
=160	=160	=160	=160	=160	=160
1I	D:maj	229.705	.	voice	1D 1f# 1a
=161	=161	=161	=161	=161	=161
1I	D:maj	231.154	newline	voice	1D 1f# 1a
=162	=162	=162	=162	=162	=162
1I	D:maj	232.605	.	voice	1D 1f# 1a
=163	=163	=163	=163	=163	=163
1I	D:maj	234.055	.	voice	1D 1f# 1a
=164	=164	=164	=164	=164	=164
1I	D:maj	235.506	.	voice	1D 1f# 1a
1r;	N	257.625	.	r	1r;
1r;	N	261.243	.	r	1r;
*-	*-	*-	*-	*-	*-
!!!OTL: Every Little Thing She Does Is Magic
!!!COC: The Police
!!!BillboardChartDate: 1981/12/26
!!!BillboardPeak: 3
!!!BillboardWeeksOnChart: 19
!!!SampleTargetRank: 18
!!!SampleActualRank: 20
!!!SampleID#: 0293
!!!RDF**harmony: **recip + pitch class of root + harmonic quality
!!!RDF**harte: Chris Harte's syntax, used by MIREX
!!!RDF**phrase: newline = linebreak in original McGill transcription
!!!RDF**timestamp: McGill audio timestamp in seconds
!!!RDF**leadinstrument: original McGill primary instrumentation annotation
!!!RDT: 2017/01/12/
!!!ENC: Nathaniel Condit-Schultz
!!!EST: Awating manual error checking and editing.
